client/src/img/Instagram.svg

<svg width="48" height="48" viewBox="0 0 48 48" fill="none" xmlns="http://www.w3.org/2000/svg">
<path d="M0 24C0 10.7452 10.7452 0 24 0C37.2548 0 48 10.7452 48 24C48 37.2548 37.2548 48 24 48C10.7452 48 0 37.2548 0 24Z" fill="white"/>
<mask id="mask0" mask-type="alpha" maskUnits="userSpaceOnUse" x="0" y="0" width="48" height="48">
<path fill-rule="evenodd" clip-rule="evenodd" d="M0 24C0 10.7452 10.7452 0 24 0C37.2548 0 48 10.7452 48 24C48 37.2548 37.2548 48 24 48C10.7452 48 0 37.2548 0 24Z" fill="white"/>
</mask>
<g mask="url(#mask0)">
<path fill-rule="evenodd" clip-rule="evenodd" d="M24.0012 11.2C20.5248 11.2 20.0886 11.2152 18.7232 11.2773C17.3605 11.3397 16.4304 11.5555 15.6165 11.872C14.7747 12.199 14.0605 12.6363 13.349 13.348C12.637 14.0595 12.1997 14.7736 11.8717 15.6153C11.5544 16.4294 11.3384 17.3598 11.277 18.722C11.216 20.0873 11.2 20.5238 11.2 24.0001C11.2 27.4764 11.2154 27.9114 11.2773 29.2767C11.34 30.6394 11.5557 31.5696 11.872 32.3834C12.1992 33.2253 12.6365 33.9394 13.3482 34.6509C14.0594 35.3629 14.7736 35.8013 15.6149 36.1283C16.4293 36.4448 17.3597 36.6605 18.7222 36.7229C20.0875 36.7851 20.5235 36.8003 23.9996 36.8003C27.4761 36.8003 27.9111 36.7851 29.2764 36.7229C30.6391 36.6605 31.5703 36.4448 32.3847 36.1283C33.2263 35.8013 33.9394 35.3629 34.6506 34.6509C35.3626 33.9394 35.7999 33.2253 36.1279 32.3837C36.4426 31.5696 36.6586 30.6391 36.7226 29.277C36.784 27.9117 36.8 27.4764 36.8 24.0001C36.8 20.5238 36.784 20.0876 36.7226 18.7222C36.6586 17.3595 36.4426 16.4294 36.1279 15.6155C35.7999 14.7736 35.3626 14.0595 34.6506 13.348C33.9386 12.636 33.2266 12.1987 32.3839 11.872C31.5679 11.5555 30.6372 11.3397 29.2745 11.2773C27.9092 11.2152 27.4745 11.2 23.9972 11.2H24.0012ZM23.5742 13.5066H23.5745L24.0012 13.5067C27.4188 13.5067 27.8239 13.519 29.1735 13.5803C30.4215 13.6374 31.0988 13.8459 31.55 14.0211C32.1474 14.2531 32.5732 14.5304 33.021 14.9785C33.469 15.4265 33.7463 15.8531 33.9789 16.4505C34.1541 16.9011 34.3629 17.5785 34.4197 18.8265C34.481 20.1758 34.4943 20.5812 34.4943 23.9972C34.4943 27.4132 34.481 27.8186 34.4197 29.1679C34.3626 30.4159 34.1541 31.0933 33.9789 31.544C33.7469 32.1413 33.469 32.5666 33.021 33.0144C32.573 33.4624 32.1476 33.7397 31.55 33.9717C31.0994 34.1477 30.4215 34.3557 29.1735 34.4128C27.8241 34.4741 27.4188 34.4875 24.0012 34.4875C20.5832 34.4875 20.1782 34.4741 18.8288 34.4128C17.5808 34.3552 16.9035 34.1467 16.452 33.9715C15.8547 33.7394 15.428 33.4621 14.98 33.0141C14.532 32.5661 14.2546 32.1405 14.0221 31.5429C13.8469 31.0922 13.6381 30.4149 13.5813 29.1669C13.52 27.8175 13.5077 27.4122 13.5077 23.994C13.5077 20.5758 13.52 20.1726 13.5813 18.8233C13.6384 17.5753 13.8469 16.8979 14.0221 16.4467C14.2541 15.8494 14.532 15.4227 14.98 14.9747C15.428 14.5267 15.8547 14.2494 16.452 14.0168C16.9032 13.8408 17.5808 13.6328 18.8288 13.5755C20.0096 13.5222 20.4672 13.5062 22.8529 13.5035V13.5067C23.0758 13.5064 23.3155 13.5065 23.5742 13.5066ZM29.2977 17.1675C29.2977 16.3193 29.9857 15.6321 30.8338 15.6321V15.6315C31.6818 15.6315 32.3698 16.3195 32.3698 17.1675C32.3698 18.0155 31.6818 18.7036 30.8338 18.7036C29.9857 18.7036 29.2977 18.0155 29.2977 17.1675ZM24.0009 17.4267C20.3708 17.4269 17.4277 20.3701 17.4277 24.0001C17.4277 27.6303 20.371 30.5722 24.0012 30.5722C27.6313 30.5722 30.5735 27.6303 30.5735 24.0001C30.5735 20.37 27.6311 17.4267 24.0009 17.4267ZM28.2679 24.0001C28.2679 21.6436 26.3574 19.7334 24.0012 19.7334C21.6446 19.7334 19.7344 21.6436 19.7344 24.0001C19.7344 26.3564 21.6446 28.2669 24.0012 28.2669C26.3574 28.2669 28.2679 26.3564 28.2679 24.0001Z" fill="black"/>
</g>
</svg>

<svg width="48" height="48" fill="none" xmlns="http://www.w3.org/2000/svg"><path d="M0 24C0 10.745 10.745 0 24 0s24 10.745 24 24-10.745 24-24 24S0 37.255 0 24z" fill="#fff"/><mask id="a" maskUnits="userSpaceOnUse" x="0" y="0" width="48" height="48"><path fill-rule="evenodd" clip-rule="evenodd" d="M0 24C0 10.745 10.745 0 24 0s24 10.745 24 24-10.745 24-24 24S0 37.255 0 24z" fill="#fff"/></mask><g mask="url(#a)"><path fill-rule="evenodd" clip-rule="evenodd" d="M24.001 11.2c-3.476 0-3.912.015-5.278.077-1.363.063-2.293.279-3.106.595a6.27 6.27 0 00-2.268 1.476 6.283 6.283 0 00-1.477 2.267c-.318.814-.534 1.745-.595 3.107-.061 1.365-.077 1.802-.077 5.278 0 3.476.015 3.911.077 5.277.063 1.362.279 2.293.595 3.106a6.272 6.272 0 001.476 2.268 6.27 6.27 0 002.267 1.477c.814.317 1.745.532 3.107.595 1.365.062 1.801.077 5.278.077 3.476 0 3.911-.015 5.276-.077 1.363-.063 2.294-.278 3.109-.595a6.264 6.264 0 002.266-1.477 6.284 6.284 0 001.477-2.267c.315-.814.53-1.745.595-3.107.061-1.365.077-1.8.077-5.277 0-3.476-.016-3.912-.077-5.278-.064-1.363-.28-2.293-.595-3.107a6.282 6.282 0 00-1.477-2.267 6.256 6.256 0 00-2.267-1.476c-.816-.316-1.747-.532-3.11-.595-1.365-.062-1.8-.077-5.277-.077h.004zm-.427 2.307h.427c3.418 0 3.823.012 5.172.073 1.249.057 1.926.266 2.377.441.597.232 1.023.51 1.471.957.448.449.725.875.958 1.473.175.45.384 1.127.44 2.375.062 1.35.075 1.755.075 5.171 0 3.416-.013 3.822-.074 5.17-.057 1.249-.266 1.926-.441 2.377a3.959 3.959 0 01-.958 1.47 3.959 3.959 0 01-1.471.958c-.45.176-1.128.384-2.377.44-1.349.062-1.754.075-5.172.075-3.418 0-3.823-.013-5.172-.074-1.248-.058-1.925-.266-2.377-.441a3.966 3.966 0 01-1.472-.958 3.967 3.967 0 01-.958-1.471c-.175-.45-.384-1.128-.44-2.376-.062-1.35-.074-1.755-.074-5.173s.012-3.821.073-5.17c.057-1.249.266-1.926.441-2.377.232-.598.51-1.024.958-1.472a3.974 3.974 0 011.472-.958c.451-.176 1.129-.384 2.377-.441 1.18-.054 1.638-.07 4.024-.072v.003h.721zm5.724 3.66a1.536 1.536 0 113.071 0 1.536 1.536 0 01-3.071 0zm-5.297.26a6.574 6.574 0 10.001 13.147 6.574 6.574 0 00-.001-13.147zM28.268 24a4.267 4.267 0 10-8.534 0 4.267 4.267 0 008.534 0z" fill="#000"/></g></svg>
